X:1
T:Hence They Come
T:Hence They Come
T:Teton Sioux band 1911-1914
C:Teton Sioux band 1911-1914
L:1/8
Q:1/4=58
M:3/4
K:D
V:1 treble 
V:1
 A2 AA/F/ EE | A<F (3FAF E2 | DD DB, B,B, | B,6 | D<D D<D B,/ z/ E ||[M:2/4] E<D B,B, | %6
 B,<B, B,B, | B,4 | B,4 | B,<A AA ||[M:3/4] (3:2:1AA(3:2:1F/ E2 z E | A<F (3:2:1FA(3:2:1F/ E2 | %12
 D<D D<B, B,>B, | B,6 | D<D D<D B,/ z/ E ||[M:2/4] E<D B,B, | B,<B, B,B, | B,4 | B,4 |] %19

